icons/fill-new-office-tool-collection-tag-a-class.svg

<svg xmlns="http://www.w3.org/2000/svg" width="32px" height="32px" viewBox="0 0 32 32" version="1.1">
    <title>fill-new-office-tool-collection-tag-a-class</title>
    <g id="fill-new-office-tool-collection-tag-a-class" stroke-width="1" fill-rule="evenodd">
        <path d="M25,3 C25.5522847,3 26,3.44771525 26,4 L26,28.9193752 C26,29.4716599 25.5522847,29.919412 25,29.919412 C24.7729285,29.919412 24.552618,29.8420944 24.375305,29.700244 L16.624695,23.499756 C16.2594764,23.2075811 15.7405236,23.2075811 15.375305,23.499756 L7.62469505,29.700244 C7.19343311,30.0452535 6.56414074,29.9753321 6.21913119,29.5440702 C6.07728075,29.3667572 6,29.1464466 6,28.9193752 L6,4 C6,3.44771525 6.44771525,3 7,3 L25,3 Z M16.9320047,8.63755374 C16.6014213,7.78748209 15.3985787,7.78748209 15.0679953,8.63755374 L11.5679953,17.6375537 C11.3678218,18.1522857 11.6228218,18.7318311 12.1375537,18.9320047 L12.2486836,18.9680033 C12.7331423,19.0944245 13.2461292,18.8404117 13.4320047,18.3624463 L13.962,17 L18.037,17 L18.5679953,18.3624463 C18.7538708,18.8404117 19.2668577,19.0944245 19.7513164,18.9680033 L19.8624463,18.9320047 C20.3771782,18.7318311 20.6321782,18.1522857 20.4320047,17.6375537 L16.9320047,8.63755374 Z M16,11.76 L17.26,15 L14.74,15 L16,11.76 Z" id="&#24418;&#29366;" />
    </g>
</svg>

<svg xmlns="http://www.w3.org/2000/svg" viewBox="0 0 32 32"><path fill="currentColor" d="M25 3a1 1 0 0 1 1 1v24.92a1 1 0 0 1-1.625.78l-7.75-6.2a1 1 0 0 0-1.25 0l-7.75 6.2A1 1 0 0 1 6 28.92V4a1 1 0 0 1 1-1zm-8.068 5.638c-.33-.85-1.533-.85-1.864 0l-3.5 9a1 1 0 0 0 .57 1.294l.11.036a1 1 0 0 0 1.184-.606l.53-1.362h4.075l.531 1.362a1 1 0 0 0 1.183.606l.111-.036a1 1 0 0 0 .57-1.294zM16 11.76 17.26 15h-2.52z"/></svg>
